static/img/kroki/dbd7ca7ad124ab964ac1d41f0fded2e0.svg

<?xml version="1.0" encoding="us-ascii" standalone="no"?><svg xmlns="http://www.w3.org/2000/svg" xmlns:xlink="http://www.w3.org/1999/xlink" contentStyleType="text/css" height="152px" preserveAspectRatio="none" style="width:567px;height:152px;" version="1.1" viewBox="0 0 567 152" width="567px" zoomAndPan="magnify"><defs/><g><!--class azure_network_virtual_hub--><g id="elem_azure_network_virtual_hub"><rect codeLine="23" fill="#3D176E" height="39.7891" id="azure_network_virtual_hub" rx="2.5" ry="2.5" style="stroke:#000D19;stroke-width:0.5;" width="272" x="7" y="106.79"/><ellipse cx="22" cy="126.6845" fill="#ADD1B2" rx="11" ry="11" style="stroke:#181818;stroke-width:1.0;"/><path d="M24.9688,132.3252 Q24.3906,132.622 23.75,132.7627 Q23.1094,132.9189 22.4063,132.9189 Q19.9063,132.9189 18.5781,131.2783 Q17.2656,129.622 17.2656,126.497 Q17.2656,123.372 18.5781,121.7158 Q19.9063,120.0595 22.4063,120.0595 Q23.1094,120.0595 23.75,120.2158 Q24.4063,120.372 24.9688,120.6689 L24.9688,123.3877 Q24.3438,122.8095 23.75,122.5439 Q23.1563,122.2627 22.5313,122.2627 Q21.1875,122.2627 20.5,123.3408 Q19.8125,124.4033 19.8125,126.497 Q19.8125,128.5908 20.5,129.6689 Q21.1875,130.7314 22.5313,130.7314 Q23.1563,130.7314 23.75,130.4658 Q24.3438,130.1845 24.9688,129.6064 L24.9688,132.3252 Z " fill="#000000"/><text fill="#D9B8FF" font-family="Helvetica" font-size="17" lengthAdjust="spacing" textLength="230" x="41" y="132.5698">azure_network_virtual_hub</text></g><!--class azure_network_virtual_wan--><g id="elem_azure_network_virtual_wan"><rect codeLine="26" fill="#3D176E" height="39.7891" id="azure_network_virtual_wan" rx="2.5" ry="2.5" style="stroke:#000D19;stroke-width:0.5;" width="276" x="152" y="7"/><ellipse cx="167" cy="26.8945" fill="#ADD1B2" rx="11" ry="11" style="stroke:#181818;stroke-width:1.0;"/><path d="M169.9688,32.5352 Q169.3906,32.832 168.75,32.9727 Q168.1094,33.1289 167.4063,33.1289 Q164.9063,33.1289 163.5781,31.4883 Q162.2656,29.832 162.2656,26.707 Q162.2656,23.582 163.5781,21.9258 Q164.9063,20.2695 167.4063,20.2695 Q168.1094,20.2695 168.75,20.4258 Q169.4063,20.582 169.9688,20.8789 L169.9688,23.5977 Q169.3438,23.0195 168.75,22.7539 Q168.1563,22.4727 167.5313,22.4727 Q166.1875,22.4727 165.5,23.5508 Q164.8125,24.6133 164.8125,26.707 Q164.8125,28.8008 165.5,29.8789 Q166.1875,30.9414 167.5313,30.9414 Q168.1563,30.9414 168.75,30.6758 Q169.3438,30.3945 169.9688,29.8164 L169.9688,32.5352 Z " fill="#000000"/><text fill="#D9B8FF" font-family="Helvetica" font-size="17" lengthAdjust="spacing" textLength="234" x="186" y="32.7798">azure_network_virtual_wan</text></g><!--class azure_network_vpn_site--><g id="elem_azure_network_vpn_site"><rect codeLine="29" fill="#3D176E" height="39.7891" id="azure_network_vpn_site" rx="2.5" ry="2.5" style="stroke:#000D19;stroke-width:0.5;" width="246" x="314" y="106.79"/><ellipse cx="329" cy="126.6845" fill="#ADD1B2" rx="11" ry="11" style="stroke:#181818;stroke-width:1.0;"/><path d="M331.9688,132.3252 Q331.3906,132.622 330.75,132.7627 Q330.1094,132.9189 329.4063,132.9189 Q326.9063,132.9189 325.5781,131.2783 Q324.2656,129.622 324.2656,126.497 Q324.2656,123.372 325.5781,121.7158 Q326.9063,120.0595 329.4063,120.0595 Q330.1094,120.0595 330.75,120.2158 Q331.4063,120.372 331.9688,120.6689 L331.9688,123.3877 Q331.3438,122.8095 330.75,122.5439 Q330.1563,122.2627 329.5313,122.2627 Q328.1875,122.2627 327.5,123.3408 Q326.8125,124.4033 326.8125,126.497 Q326.8125,128.5908 327.5,129.6689 Q328.1875,130.7314 329.5313,130.7314 Q330.1563,130.7314 330.75,130.4658 Q331.3438,130.1845 331.9688,129.6064 L331.9688,132.3252 Z " fill="#000000"/><text fill="#D9B8FF" font-family="Helvetica" font-size="17" lengthAdjust="spacing" textLength="204" x="348" y="132.5698">azure_network_vpn_site</text></g><!--link azure_network_virtual_wan to azure_network_virtual_hub--><g id="link_azure_network_virtual_wan_azure_network_virtual_hub"><path codeLine="32" d="M260.96,47.22 C235.19,64.36 202.7353,85.9463 176.9753,103.0863 " fill="none" id="azure_network_virtual_wan-to-azure_network_virtual_hub" style="stroke:#1A83AF;stroke-width:2.0;"/><polygon fill="#1A83AF" points="171.98,106.41,181.6887,104.7546,176.1427,103.6402,177.2571,98.0942,171.98,106.41" style="stroke:#1A83AF;stroke-width:2.0;"/></g><!--link azure_network_virtual_wan to azure_network_vpn_site--><g id="link_azure_network_virtual_wan_azure_network_vpn_site"><path codeLine="33" d="M319.04,47.22 C344.81,64.36 377.2753,85.9454 403.0253,103.0854 " fill="none" id="azure_network_virtual_wan-to-azure_network_vpn_site" style="stroke:#1A83AF;stroke-width:2.0;"/><polygon fill="#1A83AF" points="408.02,106.41,402.7444,98.0933,403.8578,103.6395,398.3116,104.7529,408.02,106.41" style="stroke:#1A83AF;stroke-width:2.0;"/></g><!--SRC=[dP31IiD048RlUOg5dWkDHTjUX5WeUYbYlOc4INQsMPBiXjb9Gok-kzPMMHEJWjVvF_xvPZ8jKM1PyLwKM2P8Bd2vDXKGb28YiitI5fR4I2bGqraxN5d35u4rb2ZkiTWXwnJQn7EcqzoWS-BAY-uWpRTaQoDFzKnWt6U4XZrgMO1p4JFff6RqPEGYcIlL9jkbewaCPpVOmIn9f3CocKnak6WZ5rSDtlr3RFG1HUW_RMqPEvgT5L_KeEMHy2GxXtxdlOwF8AKsMt7jpPvEJcIGViqt6KZR76a5XVFNE4P2o_iAbvshS36NQlOd_D071-dnTG8EDM5ia1jBURpJn3KKSLOduYq8tWUX1im0L9dOQSOJqLymVXc5qNmQhLx7j_qo_omuEmGV]--></g></svg>

<svg xmlns="http://www.w3.org/2000/svg" width="567" height="152" viewBox="0 0 567 152"><rect width="272" height="39.789" x="7" y="106.79" fill="#3D176E" rx="2.5" ry="2.5" style="stroke:#000d19;stroke-width:.5"/><circle cx="22" cy="126.684" r="11" fill="#ADD1B2" style="stroke:#181818;stroke-width:1"/><path d="M24.969 132.325q-.578.297-1.219.438-.64.156-1.344.156-2.5 0-3.828-1.64-1.312-1.657-1.312-4.782t1.312-4.781q1.328-1.656 3.828-1.656.703 0 1.344.156.656.156 1.219.453v2.719q-.625-.579-1.219-.844-.594-.281-1.219-.281-1.343 0-2.031 1.078-.687 1.062-.687 3.156t.687 3.172q.688 1.062 2.031 1.062.625 0 1.219-.265.594-.281 1.219-.86z"/><text x="41" y="132.57" fill="#D9B8FF" font-family="Helvetica" font-size="17" textLength="230">azure_network_virtual_hub</text><rect width="276" height="39.789" x="152" y="7" fill="#3D176E" rx="2.5" ry="2.5" style="stroke:#000d19;stroke-width:.5"/><circle cx="167" cy="26.895" r="11" fill="#ADD1B2" style="stroke:#181818;stroke-width:1"/><path d="M169.969 32.535q-.578.297-1.219.438-.64.156-1.344.156-2.5 0-3.828-1.64-1.312-1.657-1.312-4.782t1.312-4.781q1.328-1.656 3.828-1.656.703 0 1.344.156.656.156 1.219.453v2.719q-.625-.578-1.219-.844-.594-.281-1.219-.281-1.344 0-2.031 1.078-.687 1.062-.687 3.156t.687 3.172q.688 1.062 2.031 1.062.625 0 1.219-.265.594-.281 1.219-.86z"/><text x="186" y="32.78" fill="#D9B8FF" font-family="Helvetica" font-size="17" textLength="234">azure_network_virtual_wan</text><rect width="246" height="39.789" x="314" y="106.79" fill="#3D176E" rx="2.5" ry="2.5" style="stroke:#000d19;stroke-width:.5"/><circle cx="329" cy="126.684" r="11" fill="#ADD1B2" style="stroke:#181818;stroke-width:1"/><path d="M331.969 132.325q-.578.297-1.219.438-.64.156-1.344.156-2.5 0-3.828-1.64-1.312-1.657-1.312-4.782t1.312-4.781q1.328-1.656 3.828-1.656.703 0 1.344.156.656.156 1.219.453v2.719q-.625-.579-1.219-.844-.594-.281-1.219-.281-1.344 0-2.031 1.078-.687 1.062-.687 3.156t.687 3.172q.688 1.062 2.031 1.062.625 0 1.219-.265.594-.281 1.219-.86z"/><text x="348" y="132.57" fill="#D9B8FF" font-family="Helvetica" font-size="17" textLength="204">azure_network_vpn_site</text><path fill="none" d="M260.96 47.22c-25.77 17.14-58.225 38.726-83.985 55.866" style="stroke:#1a83af;stroke-width:2"/><path fill="#1A83AF" d="m171.98 106.41 9.709-1.655-5.546-1.115 1.114-5.546z" style="stroke:#1a83af;stroke-width:2"/><path fill="none" d="M319.04 47.22c25.77 17.14 58.235 38.725 83.985 55.865" style="stroke:#1a83af;stroke-width:2"/><path fill="#1A83AF" d="m408.02 106.41-5.276-8.317 1.114 5.546-5.546 1.114z" style="stroke:#1a83af;stroke-width:2"/></svg>
